X: 159
T: Shepherds Jigg
B: 204 Favourite Country Dances
N: Published by Straight & Skillern, London ca.1775
F: http://imslp.org/wiki/204_Favourite_Country_Dances_(Various) p.80 #159
Z: 2014 John Chambers <jc:trillian.mit.edu>
N: Repeat bars 5 & 6 are drawn just once, with "Bis" below an arc over the measure.
M: 6/8
L: 1/8
K: G
% - - - - - - - - - - - - - - - - - - - - - - - - -
B/c/ |\
dBG Gge | dBG Gge | dcB dcB | A3- A2B/c/ |\
dBG Gge | dBG Gge | dcB cBA | G3- G2 :|
|: B/c/ |\
dBd ece | fda b2g | dBd ece | fdd' b2g |\
dBd ece | fda b2g | dBd ece | fdf g2 :|
% - - - - - - - - - - - - - - - - - - - - - - - - -
%%begintext align
%% Turn Right Hands and cast off 1 Cu. .|
%% turn Left Hands and cast up again .|. Cross
%% over and half figure .|| Right & Left .||.
%%endtext

%%sep 1 1 500
%%sep 1 1 500
